storage/app/icons/phosphoricons/fill/selection-plus-fill.svg

<svg xmlns="http://www.w3.org/2000/svg" fill="currentColor" viewBox="0 0 256 256"><path d="M208 32H48a16 16 0 0 0-16 16v160a16 16 0 0 0 16 16h160a16 16 0 0 0 16-16V48a16 16 0 0 0-16-16M56 72a16 16 0 0 1 16-16h24a8 8 0 0 1 0 16H72v24a8 8 0 0 1-16 0Zm56 112H72a16 16 0 0 1-16-16v-32a8 8 0 0 1 16 0v32h40a8 8 0 0 1 0 16m16-120a8 8 0 0 1 8-8h32a16 16 0 0 1 16 16v40a8 8 0 0 1-16 0V72h-32a8 8 0 0 1-8-8m72 120h-16v16a8 8 0 0 1-16 0v-16h-16a8 8 0 0 1 0-16h16v-16a8 8 0 0 1 16 0v16h16a8 8 0 0 1 0 16"/></svg>

<svg xmlns="http://www.w3.org/2000/svg" viewBox="0 0 256 256" fill="currentColor"><path d="M208,32H48A16,16,0,0,0,32,48V208a16,16,0,0,0,16,16H208a16,16,0,0,0,16-16V48A16,16,0,0,0,208,32ZM56,72A16,16,0,0,1,72,56H96a8,8,0,0,1,0,16H72V96a8,8,0,0,1-16,0Zm56,112H72a16,16,0,0,1-16-16V136a8,8,0,0,1,16,0v32h40a8,8,0,0,1,0,16ZM128,64a8,8,0,0,1,8-8h32a16,16,0,0,1,16,16v40a8,8,0,0,1-16,0V72H136A8,8,0,0,1,128,64Zm72,120H184v16a8,8,0,0,1-16,0V184H152a8,8,0,0,1,0-16h16V152a8,8,0,0,1,16,0v16h16a8,8,0,0,1,0,16Z"/></svg>
